Adwaita/scalable/categories/applications-multimedia-symbolic.svg

<?xml version="1.0" encoding="UTF-8"?>
<svg height="15.996094px" viewBox="0 0 15.972656 15.996094" width="15.972656px" xmlns="http://www.w3.org/2000/svg">
    <path d="m 1.96875 -0.00390625 s -0.96875 1.00000025 -0.96875 2.00000025 v 12 c 0 1.007812 -1 2 -1 2 h 1 s 0.421875 -0.425782 0.71875 -1 h 1 c -0.296875 0.574218 -0.71875 1 -0.71875 1 h 1 s 1 -1.019532 1 -2 v -2 h 1 v -1 h -1 v -5 h 8 v 1 h 3 v -5 c 0 -1 0.96875 -2.00000025 0.96875 -2.00000025 h -3 s -0.96875 1.00000025 -0.96875 2.00000025 v 3 h -8 v -3 c 0 -1 0.96875 -2.00000025 0.96875 -2.00000025 z m 0.3125 1.00000025 h 1 c -0.152344 0.304687 -0.28125 0.652344 -0.28125 1 h -1 c 0 -0.347656 0.128906 -0.695313 0.28125 -1 z m 11 0 h 1 c -0.152344 0.304687 -0.28125 0.652344 -0.28125 1 h -1 c 0 -0.347656 0.128906 -0.695313 0.28125 -1 z m -11.28125 2 h 1 v 1 h -1 z m 11 0 h 1 v 1 h -1 z m -11 2 h 1 v 1 h -1 z m 11 0 h 1 v 1 h -1 z m -11 2 h 1 v 1 h -1 z m 7 1 v 4.28125 c -0.292969 -0.171875 -0.636719 -0.28125 -1 -0.28125 c -1.105469 0 -2 0.894531 -2 2 c 0 1.105468 0.894531 2 2 2 s 2 -0.894532 2 -2 v -5 h 4 v 3.28125 c -0.292969 -0.171875 -0.636719 -0.28125 -1 -0.28125 c -1.105469 0 -2 0.894531 -2 2 c 0 1.105468 0.894531 2 2 2 s 2 -0.894532 2 -2 v -6 z m -7 1 h 1 v 1 h -1 z m 0 2 h 1 v 1 h -1 z m 0 2 h 1 v 1 h -1 z m 0 0" fill="#2e3436"/>
</svg>

<svg xmlns="http://www.w3.org/2000/svg" width="16" height="16"><g color="#000" fill="#474747"><path d="M9 8v4.281A1.995 1.995 0 008 12a2 2 0 102 2V9h4v3.281A1.995 1.995 0 0013 12a2 2 0 102 2V8h-5z" style="marker:none" overflow="visible"/><path d="M1.969 0S1 1 1 2v12c0 1.01-1 2-1 2h1s.423-.427.719-1h1C2.423 15.573 2 16 2 16h1s1-1.021 1-2v-2h1v-1H4V6h8v1h3V2c0-1 .969-2 .969-2h-3S12 1 12 2v3H4V2c0-1 .969-2 .969-2zm.312 1h1c-.152.306-.28.652-.28 1H2c0-.348.128-.694.28-1zm11 0h1c-.152.306-.28.652-.28 1h-1c0-.348.128-.694.28-1zM2.001 3h1v1H2zm11 0h1v1h-1zM2 5h1v1H2zm11 0h1v1h-1zM2 7h1v1H2zm0 2h1v1H2zm0 2h1v1H2zm0 2h1v1H2z" style="marker:none" overflow="visible"/></g></svg>
